X:006
T: Garry Owen
N: O'Farrell's Pocket Companion v.1 (Sky ed. p.15)
M: 6/8
R: jig
L: 1/8
Q: 320
K: Edor
d|BAG FED|FAF Fdc|BAG FED|EFE E2d|
BAG FED|FAF FEF|ABc d2F|EFE E2 :|
F|A2F A2F| FAF A2d |B2A B2G |GAG B2c|
d2e f2e| d2B A2F |ABc d2F |EFE E2 :|
